svgs/sharp-light/chalkboard-user.svg

<svg xmlns="http://www.w3.org/2000/svg" viewBox="0 0 640 512"><!--! Font Awesome Pro 6.6.0 by @fontawesome - https://fontawesome.com License - https://fontawesome.com/license (Commercial License) Copyright 2024 Fonticons, Inc. --><path d="M608 32L192 32l0 68c-10.2-2.6-21-4-32-4l0-64 0-32 32 0L608 0l32 0 0 32 0 352 0 32-32 0-32 0-16 0-160 0-16 0-59.4 0L315 384l69 0 0-80 0-16 16 0 160 0 16 0 0 16 0 80 32 0 0-352zM544 384l0-64-128 0 0 64 128 0zM224 224A64 64 0 1 0 96 224a64 64 0 1 0 128 0zM64 224a96 96 0 1 1 192 0A96 96 0 1 1 64 224zM43 480l234 0-28.8-96L71.8 384 43 480zm5-128l224 0 38.4 128 9.6 32-33.4 0L33.4 512 0 512l9.6-32L48 352z"/></svg>

<svg xmlns="http://www.w3.org/2000/svg" viewBox="0 0 640 512"><!--! Font Awesome Pro 6.4.2 by @fontawesome - https://fontawesome.com License - https://fontawesome.com/license (Commercial License) Copyright 2023 Fonticons, Inc. --><path d="M608 32H192v68c-10.2-2.6-21-4-32-4V32 0h32H608h32V32 384v32H608 576 560 400 384 324.6L315 384h69V304 288h16H560h16v16 80h32V32zM544 384V320H416v64H544zM224 224A64 64 0 1 0 96 224a64 64 0 1 0 128 0zM64 224a96 96 0 1 1 192 0A96 96 0 1 1 64 224zM43 480H277l-28.8-96H71.8L43 480zm5-128H272l38.4 128 9.6 32H286.6 33.4 0l9.6-32L48 352z"/></svg>
